**harmony	**harte	**kern	**silbe	**kern	**silbe	**rhyme	**timestamp	**phrase	**leadinstrument
*M4/4	*M4/4	*ICvox	*	*ICvox	*	*	*	*	*
*	*	*VRlead	*	*VRharmonize	*	*	*	*	*
*	*	*Hstimme	*	*Nstimme	*	*	*	*	*
*D-:	*D-:	*D-:	*	*D-:	*	*	*	*	*
*	*	*M4/4	*	*M4/4	*	*	*	*	*
*	*	*clefF4	*	*clefF4	*	*	*	*	*
1r;	1r	r;	.	r;	.	.	.	.	r
=1	=1	=1	=1	=1	=1	=1	=1	=1	=1
*>Letter>A	*>Letter>A	*>Letter>A	*>Letter>A	*>Letter>A	*>Letter>A	*>Letter>A	*>Letter>A	*>Letter>A	*>Letter>A
*>Label>Intro	*>Label>Intro	*>Label>Intro	*>Label>Intro	*>Label>Intro	*>Label>Intro	*>Label>Intro	*>Label>Intro	*>Label>Intro	*>Label>Intro
1D-Mm	D-:1	1r	.	1r	.	.	8.425	newline	guitar
=2	=2	=2	=2	=2	=2	=2	=2	=2	=2
1D-Mm	D-:1	1r	.	1r	.	.	.	.	guitar
=3	=3	=3	=3	=3	=3	=3	=3	=3	=3
1D-Mm	D-:1	1r	.	1r	.	.	.	.	guitar
=4	=4	=4	=4	=4	=4	=4	=4	=4	=4
1D-Mm	D-:1	1r	.	1r	.	.	.	.	guitar
=5	=5	=5	=5	=5	=5	=5	=5	=5	=5
1D-Mm	D-:1	1r	.	1r	.	.	.	.	guitar
=6	=6	=6	=6	=6	=6	=6	=6	=6	=6
1D-Mm	D-:1	1r	.	1r	.	.	.	.	guitar
=7	=7	=7	=7	=7	=7	=7	=7	=7	=7
1D-Mm	D-:1	1r	.	1r	.	.	.	.	guitar
=8	=8	=8	=8	=8	=8	=8	=8	=8	=8
1D-Mm	D-:1	1r	.	1r	.	.	.	.	guitar
=9	=9	=9	=9	=9	=9	=9	=9	=9	=9
*>Letter>B	*>Letter>B	*>Letter>B	*>Letter>B	*>Letter>B	*>Letter>B	*>Letter>B	*>Letter>B	*>Letter>B	*>Letter>B
*>Label>Verse	*>Label>Verse	*>Label>Verse	*>Label>Verse	*>Label>Verse	*>Label>Verse	*>Label>Verse	*>Label>Verse	*>Label>Verse	*>Label>Verse
1D-Mm	D-:7	4d-	Sun-	1r	.	.	14.82	newline	voice
.	.	[4d-	-shine	.	.	.	.	.	.
.	.	8d-]	_	.	.	.	.	.	.
.	.	4c	came	.	.	.	.	.	.
.	.	[8c-	soft	.	.	.	.	.	.
=10	=10	=10	=10	=10	=10	=10	=10	=10	=10
1D-Mm	D-:7	8c-]	_	1r	.	.	.	.	voice
.	.	4D-	ly	.	.	.	.	.	.
.	.	8D-	a-	.	.	.	.	.	.
.	.	8F	-through	.	.	.	.	.	.
.	.	4.A-	my	.	.	.	.	.	.
=11	=11	=11	=11	=11	=11	=11	=11	=11	=11
1D-Mm	D-:7	4r	.	1r	.	.	.	.	voice
.	.	8r	.	.	.	.	.	.	.
.	.	8D-	a-	.	.	.	.	.	.
.	.	8d-	-win-	.	.	.	.	.	.
.	.	8d-	-dow	.	.	.	.	.	.
.	.	8c	to-	.	.	.	.	.	.
.	.	[8c-	-day	.	.	A	.	.	.
=12	=12	=12	=12	=12	=12	=12	=12	=12	=12
1D-Mm	D-:7	4c-]	_	1r	.	.	.	.	voice
.	.	4r	.	.	.	.	.	.	.
.	.	2r	.	.	.	.	.	.	.
=13	=13	=13	=13	=13	=13	=13	=13	=13	=13
1D-Mm	D-:7	4r	.	1r	.	.	.	.	voice
.	.	8d-	Could-	.	.	.	.	.	.
.	.	8d-	-'ve	.	.	.	.	.	.
.	.	8d-	tripped	.	.	.	.	.	.
.	.	4c	out	.	.	.	.	.	.
.	.	[8c-	ea	.	.	.	.	.	.
=14	=14	=14	=14	=14	=14	=14	=14	=14	=14
1D-Mm	D-:7	8c-]	_	1r	.	.	.	.	voice
.	.	4D-	sy	.	.	.	.	.	.
.	.	8D-	a-	.	.	.	.	.	.
.	.	8F	-but	.	.	.	.	.	.
.	.	4.A-	I've	.	.	.	.	.	.
=15	=15	=15	=15	=15	=15	=15	=15	=15	=15
1D-Mm	D-:7	4r	.	1r	.	.	.	.	voice
.	.	8r	.	.	.	.	.	.	.
.	.	8D-	I	.	.	.	.	.	.
.	.	6d-	changed	.	.	.	.	.	.
.	.	6c	my	.	.	.	.	.	.
.	.	[6c-	ways	.	.	A	.	.	.
=16	=16	=16	=16	=16	=16	=16	=16	=16	=16
1D-Mm	D-:7	4c-]	_	1r	.	.	.	.	voice
.	.	4r	.	.	.	.	.	.	.
.	.	2r	.	.	.	.	.	.	.
=17	=17	=17	=17	=17	=17	=17	=17	=17	=17
1G-Mm	G-:7	2r	.	1r	.	.	29.555	newline	voice
.	.	8d-	It-	.	.	.	.	.	.
.	.	8d-	-'ll	.	.	.	.	.	.
.	.	8c-	take	.	.	.	.	.	.
.	.	[8B-	time,	.	.	B	.	.	.
=18	=18	=18	=18	=18	=18	=18	=18	=18	=18
1G-Mm	G-:7	8B-]	_	1r	.	.	.	.	voice
.	.	4D-	I	.	.	.	.	.	.
.	.	[8G-	know	.	.	.	.	.	.
.	.	8G-]	_	.	.	.	.	.	.
.	.	4B-	it	.	.	.	.	.	.
.	.	8r	.	.	.	.	.	.	.
=19	=19	=19	=19	=19	=19	=19	=19	=19	=19
1G-Mm	G-:7	2r	.	1r	.	.	.	.	voice
.	.	8d-	but	.	.	.	.	.	.
.	.	8d-	in	.	.	.	.	.	.
.	.	8c-	a	.	.	.	.	.	.
.	.	[8B-	while	.	.	C	.	.	.
=20	=20	=20	=20	=20	=20	=20	=20	=20	=20
1G-Mm	G-:7	2B-]	_	1r	.	.	.	.	voice
.	.	2r	.	.	.	.	.	.	.
=21	=21	=21	=21	=21	=21	=21	=21	=21	=21
1D-Mm	D-:7	4r	.	1r	.	.	36.79	newline	voice
.	.	8r	.	.	.	.	.	.	.
.	.	8D-	you're	.	.	.	.	.	.
.	.	8d-	gon-	.	.	.	.	.	.
.	.	8d-	-na	.	.	.	.	.	.
.	.	8c	be	.	.	.	.	.	.
.	.	[8c-	mine,	.	.	B	.	.	.
=22	=22	=22	=22	=22	=22	=22	=22	=22	=22
1D-Mm	D-:7	4.c-]	_	1r	.	.	.	.	voice
.	.	8D-	I	.	.	.	.	.	.
.	.	8F	know	.	.	.	.	.	.
.	.	4A-	it	.	.	.	.	.	.
.	.	8r	.	.	.	.	.	.	.
=23	=23	=23	=23	=23	=23	=23	=23	=23	=23
1D-Mm	D-:7	4r	.	1r	.	.	.	.	voice
.	.	8r	.	.	.	.	.	.	.
.	.	8D-	we'll	.	.	.	.	.	.
.	.	8d-	do	.	.	.	.	.	.
.	.	8d-	it	.	.	.	.	.	.
.	.	8c	in	.	.	.	.	.	.
.	.	[8c-	style	.	.	C	.	.	.
=24	=24	=24	=24	=24	=24	=24	=24	=24	=24
1D-Mm	D-:7	2c-]	_	1r	.	.	.	.	voice
.	.	2r	.	.	.	.	.	.	.
=25	=25	=25	=25	=25	=25	=25	=25	=25	=25
*>Letter>C	*>Letter>C	*>Letter>C	*>Letter>C	*>Letter>C	*>Letter>C	*>Letter>C	*>Letter>C	*>Letter>C	*>Letter>C
*>Label>Chorus	*>Label>Chorus	*>Label>Chorus	*>Label>Chorus	*>Label>Chorus	*>Label>Chorus	*>Label>Chorus	*>Label>Chorus	*>Label>Chorus	*>Label>Chorus
1A-Mm	A-:7	4A-	'Cuz	4c	_	.	43.995	newline	voice
.	.	4A-	I	4c	_	.	.	.	.
.	.	4A-	made	4c	_	.	.	.	.
.	.	4A-	my	4c	_	.	.	.	.
=26	=26	=26	=26	=26	=26	=26	=26	=26	=26
1A-Mm	A-:7	2A-	mind	2c	_	B	.	.	voice
.	.	8A-	up,	4c	_	.	.	.	.
.	.	8A-	y-	.	.	.	.	.	.
.	.	4A-	-you're	4c	_	.	.	.	.
=27	=27	=27	=27	=27	=27	=27	=27	=27	=27
1G-Mm	G-:7	4d-	go-	4d-	_	.	.	.	voice
.	.	4D-	-ing	4D-	_	.	.	.	.
.	.	8D-	to	8D-	_	.	.	.	.
.	.	4D-	be	4D-	_	.	.	.	.
.	.	[8D-	mine	[8D-	_	B	.	.	.
=28	=28	=28	=28	=28	=28	=28	=28	=28	=28
1G-Mm	G-:7	4D-]	_	4D-]	_	.	.	.	voice
.	.	8r	.	4r	.	.	.	.	.
.	.	8D-	I'll	.	.	.	.	.	.
.	.	8F	tell	2r	.	.	.	.	.
.	.	8G-	you	.	.	.	.	.	.
.	.	8F	right	.	.	.	.	.	.
.	.	8~A-	now,	.	.	.	.	.	.
=29	=29	=29	=29	=29	=29	=29	=29	=29	=29
1D-Mm	D-:7	4r	.	1r	.	.	51.405	newline	voice
.	.	8d-	A-	.	.	.	.	.	.
.	.	8d-	-ny	.	.	.	.	.	.
.	.	8d-	trick	.	.	.	.	.	.
.	.	8c	in	.	.	.	.	.	.
.	.	8c	the	.	.	.	.	.	.
.	.	[8c-	book	.	.	.	.	.	.
=30	=30	=30	=30	=30	=30	=30	=30	=30	=30
1D-Mm	D-:7	8c-]	_	1r	.	.	.	.	voice
.	.	8D-	a-	.	.	.	.	.	.
.	.	8D-	-now,	.	.	.	.	.	.
.	.	[8F	ba	.	.	.	.	.	.
.	.	8F]	_	.	.	.	.	.	.
.	.	4.A-	by	.	.	.	.	.	.
=31	=31	=31	=31	=31	=31	=31	=31	=31	=31
1D-Mm	D-:7	4r	.	1r	.	.	.	.	voice
.	.	8r	.	.	.	.	.	.	.
.	.	8D-	all	.	.	.	.	.	.
.	.	8d-	that	.	.	.	.	.	.
.	.	8d-	I	.	.	.	.	.	.
.	.	8c	can	.	.	.	.	.	.
.	.	[8c-	find	.	.	B	.	.	.
=32	=32	=32	=32	=32	=32	=32	=32	=32	=32
1D-Mm	D-:7	2.c-_	_	1r	.	.	.	.	voice
.	.	8c-]	_	.	.	.	.	.	.
.	.	8r	.	.	.	.	.	.	.
=33	=33	=33	=33	=33	=33	=33	=33	=33	=33
*>Letter>B	*>Letter>B	*>Letter>B	*>Letter>B	*>Letter>B	*>Letter>B	*>Letter>B	*>Letter>B	*>Letter>B	*>Letter>B
*>Label>Verse	*>Label>Verse	*>Label>Verse	*>Label>Verse	*>Label>Verse	*>Label>Verse	*>Label>Verse	*>Label>Verse	*>Label>Verse	*>Label>Verse
1D-Mm	D-:7	4r	.	1r	.	.	58.455	newline	voice
.	.	8d-	Ev-	.	.	.	.	.	.
.	.	8d-	-'ry-	.	.	.	.	.	.
.	.	8d-	-bo-	.	.	.	.	.	.
.	.	4c	-dy's	.	.	.	.	.	.
.	.	[8c-	hust	.	.	.	.	.	.
=34	=34	=34	=34	=34	=34	=34	=34	=34	=34
1D-Mm	D-:7	8c-]	_	1r	.	.	.	.	voice
.	.	4D-	ling	.	.	.	.	.	.
.	.	8D-	a-	.	.	.	.	.	.
.	.	4F	-just	.	.	.	.	.	.
.	.	4A-	to	.	.	.	.	.	.
=35	=35	=35	=35	=35	=35	=35	=35	=35	=35
1D-Mm	D-:7	4r	.	1r	.	.	.	.	voice
.	.	8d-	have	.	.	.	.	.	.
.	.	8d-	a	.	.	.	.	.	.
.	.	8d-	lit-	.	.	.	.	.	.
.	.	4c	-tle	.	.	.	.	.	.
.	.	[8c-	scene	.	.	D	.	.	.
=36	=36	=36	=36	=36	=36	=36	=36	=36	=36
1D-Mm	D-:7	2.c-]	_	1r	.	.	.	.	voice
.	.	4r	.	.	.	.	.	.	.
=37	=37	=37	=37	=37	=37	=37	=37	=37	=37
1D-Mm	D-:7	4r	.	1r	.	.	.	.	voice
.	.	8d-	When	.	.	.	.	.	.
.	.	8d-	I	.	.	.	.	.	.
.	.	8d-	say	.	.	.	.	.	.
.	.	8d-	we'll	.	.	.	.	.	.
.	.	8c	be	.	.	.	.	.	.
.	.	[8c-	cool	.	.	.	.	.	.
=38	=38	=38	=38	=38	=38	=38	=38	=38	=38
1D-Mm	D-:7	4.c-]	_	1r	.	.	.	.	voice
.	.	8D-	I	.	.	.	.	.	.
.	.	4F	think	.	.	.	.	.	.
.	.	4A-	that	.	.	.	.	.	.
=39	=39	=39	=39	=39	=39	=39	=39	=39	=39
1D-Mm	D-:7	4r	.	1r	.	.	.	.	voice
.	.	8r	.	.	.	.	.	.	.
.	.	8~E-	you	.	.	.	.	.	.
.	.	8d-	know	.	.	.	.	.	.
.	.	8d-	what	.	.	.	.	.	.
.	.	8c	I	.	.	.	.	.	.
.	.	[8c-	mean	.	.	D	.	.	.
=40	=40	=40	=40	=40	=40	=40	=40	=40	=40
1D-Mm	D-:7	2.c-]	_	1r	.	.	.	.	voice
.	.	4r	.	.	.	.	.	.	.
=41	=41	=41	=41	=41	=41	=41	=41	=41	=41
1G-Mm	G-:7	4r	.	1r	.	.	72.945	newline	voice
.	.	8r	.	.	.	.	.	.	.
.	.	8~E-	We	.	.	.	.	.	.
.	.	8d-	stood	.	.	.	.	.	.
.	.	8c	on	.	.	.	.	.	.
.	.	8c-	a	.	.	.	.	.	.
.	.	[8B-	beach	.	.	.	.	.	.
=42	=42	=42	=42	=42	=42	=42	=42	=42	=42
1G-Mm	G-:7	8B-]	_	1r	.	.	.	.	voice
.	.	4D-	at	.	.	.	.	.	.
.	.	[8G-	sun	.	.	.	.	.	.
.	.	8G-]	_	.	.	.	.	.	.
.	.	8B-	set	.	.	.	.	.	.
.	.	4r	.	.	.	.	.	.	.
=43	=43	=43	=43	=43	=43	=43	=43	=43	=43
1G-Mm	G-:7	8r	.	1r	.	.	.	.	voice
.	.	8G-	do	.	.	.	.	.	.
.	.	8d-	you	.	.	.	.	.	.
.	.	8d-	re-	.	.	.	.	.	.
.	.	8c	-mem-	.	.	.	.	.	.
.	.	4c-	-ber	.	.	.	.	.	.
.	.	[8B-	when	.	.	E	.	.	.
=44	=44	=44	=44	=44	=44	=44	=44	=44	=44
1G-Mm	G-:7	2B-_	_	1r	.	.	.	.	voice
.	.	8B-]	_	.	.	.	.	.	.
.	.	8r	.	.	.	.	.	.	.
.	.	4r	.	.	.	.	.	.	.
=45	=45	=45	=45	=45	=45	=45	=45	=45	=45
1D-Mm	D-:7	2r	.	1r	.	.	80.16	newline	voice
.	.	8d-	I	.	.	.	.	.	.
.	.	8d-	know	.	.	.	.	.	.
.	.	8c	a	.	.	.	.	.	.
.	.	[8c-	beach	.	.	.	.	.	.
=46	=46	=46	=46	=46	=46	=46	=46	=46	=46
1D-Mm	D-:7	4c-]	_	1r	.	.	.	.	voice
.	.	8D-	where,	.	.	.	.	.	.
.	.	[8F	ba	.	.	.	.	.	.
.	.	8F]	_	.	.	.	.	.	.
.	.	4.A-	by	.	.	.	.	.	.
=47	=47	=47	=47	=47	=47	=47	=47	=47	=47
1D-Mm	D-:7	4r	.	1r	.	.	.	.	voice
.	.	8r	.	.	.	.	.	.	.
.	.	8D-	a-	.	.	.	.	.	.
.	.	8d-	-it	.	.	.	.	.	.
.	.	8d-	ne-	.	.	.	.	.	.
.	.	8c	-ver	.	.	.	.	.	.
.	.	[8c-	ends	.	.	E	.	.	.
=48	=48	=48	=48	=48	=48	=48	=48	=48	=48
1D-Mm	D-:7	2c-]	_	1r	.	.	.	.	voice
.	.	2r	.	.	.	.	.	.	.
=49	=49	=49	=49	=49	=49	=49	=49	=49	=49
*>Letter>C	*>Letter>C	*>Letter>C	*>Letter>C	*>Letter>C	*>Letter>C	*>Letter>C	*>Letter>C	*>Letter>C	*>Letter>C
*>Label>Chorus	*>Label>Chorus	*>Label>Chorus	*>Label>Chorus	*>Label>Chorus	*>Label>Chorus	*>Label>Chorus	*>Label>Chorus	*>Label>Chorus	*>Label>Chorus
1A-Mm	A-:7	4A-	When	4c	When	.	87.28	newline	voice
.	.	4A-	you've	4c	you've	.	.	.	.
.	.	4A-	made	4c	made	.	.	.	.
.	.	4A-	your	4c	your	.	.	.	.
=50	=50	=50	=50	=50	=50	=50	=50	=50	=50
1A-Mm	A-:7	2A-	mind	2c	mind	B	.	.	voice
.	.	4A-	up,	4c	up,	.	.	.	.
.	.	4A-	for-	4c	for-	.	.	.	.
=51	=51	=51	=51	=51	=51	=51	=51	=51	=51
1G-Mm	G-:7	4d-	-e-	4d-	-e-	.	.	.	voice
.	.	4D-	-ver	4D-	-ver	.	.	.	.
.	.	8D-	to	8D-	to	.	.	.	.
.	.	4D-	be	4D-	be	.	.	.	.
.	.	[8D-	mine,	[8D-	mine,	B	.	.	.
=52	=52	=52	=52	=52	=52	=52	=52	=52	=52
1G-Mm	G-:7	4D-]	_	4D-]	_	.	.	.	voice
.	.	4r	.	4r	.	.	.	.	.
.	.	8F	hm-	2r	.	.	.	.	.
.	.	8G-	-hm-	.	.	.	.	.	.
.	.	8F	-hm-	.	.	.	.	.	.
.	.	8~A-	-hm	.	.	.	.	.	.
=53	=53	=53	=53	=53	=53	=53	=53	=53	=53
1D-Mm	D-:7	4r	.	1r	.	.	94.58	newline	voice
.	.	8r	.	.	.	.	.	.	.
.	.	8D-	I'll	.	.	.	.	.	.
.	.	8d-	pick	.	.	.	.	.	.
.	.	8c	up	.	.	.	.	.	.
.	.	8c-	your	.	.	.	.	.	.
.	.	[8c-	hand	.	.	.	.	.	.
=54	=54	=54	=54	=54	=54	=54	=54	=54	=54
1D-Mm	D-:7	4c-]	_	1r	.	.	.	.	voice
.	.	8D-	and	.	.	.	.	.	.
.	.	8D-	s-	.	.	.	.	.	.
.	.	8F	-low-	.	.	.	.	.	.
.	.	4.A-	-ly	.	.	.	.	.	.
=55	=55	=55	=55	=55	=55	=55	=55	=55	=55
1D-Mm	D-:7	4r	.	1r	.	.	.	.	voice
.	.	8d-	blow	.	.	.	.	.	.
.	.	8d-	your	.	.	.	.	.	.
.	.	8d-	lit-	.	.	.	.	.	.
.	.	4c	-tle	.	.	.	.	.	.
.	.	[8c-	mind	.	.	B	.	.	.
=56	=56	=56	=56	=56	=56	=56	=56	=56	=56
1D-Mm	D-:7	2c-_	_	1r	.	.	.	.	voice
.	.	8c-]	_	.	.	.	.	.	.
.	.	8r	.	.	.	.	.	.	.
.	.	4r	.	.	.	.	.	.	.
=57	=57	=57	=57	=57	=57	=57	=57	=57	=57
*>Letter>C	*>Letter>C	*>Letter>C	*>Letter>C	*>Letter>C	*>Letter>C	*>Letter>C	*>Letter>C	*>Letter>C	*>Letter>C
*>Label>Chorus	*>Label>Chorus	*>Label>Chorus	*>Label>Chorus	*>Label>Chorus	*>Label>Chorus	*>Label>Chorus	*>Label>Chorus	*>Label>Chorus	*>Label>Chorus
1A-Mm	A-:7	4A-	'Cuz	4c	'Cuz	.	101.695	newline	voice
.	.	4A-	I've	4c	I've	.	.	.	.
.	.	4A-	made	4c	made	.	.	.	.
.	.	4A-	my	4c	my	.	.	.	.
=58	=58	=58	=58	=58	=58	=58	=58	=58	=58
1A-Mm	A-:7	2A-	mind	2c	mind	B	.	.	voice
.	.	4A-	up,	4c	up,	.	.	.	.
.	.	4A-	you're	4c	you're	.	.	.	.
=59	=59	=59	=59	=59	=59	=59	=59	=59	=59
1G-Mm	G-:7	4d-	go-	4d-	go-	.	.	.	voice
.	.	4D-	-ing	4D-	-ing	.	.	.	.
.	.	8D-	to	8D-	to	.	.	.	.
.	.	4D-	be	4D-	be	.	.	.	.
.	.	[8D-	mine	[8D-	mine	B	.	.	.
=60	=60	=60	=60	=60	=60	=60	=60	=60	=60
1G-Mm	G-:7	4D-]	_	4D-]	_	.	.	.	voice
.	.	8r	.	4r	.	.	.	.	.
.	.	8D-	I'll	.	.	.	.	.	.
.	.	8F	tell	2r	.	.	.	.	.
.	.	8G-	you	.	.	.	.	.	.
.	.	8F	right	.	.	.	.	.	.
.	.	8~A-	now	.	.	.	.	.	.
=61	=61	=61	=61	=61	=61	=61	=61	=61	=61
1D-Mm	D-:7	4r	.	1r	.	.	109.015	newline	voice
.	.	8d-	A-	.	.	.	.	.	.
.	.	8d-	-ny	.	.	.	.	.	.
.	.	8d-	trick	.	.	.	.	.	.
.	.	8c	in	.	.	.	.	.	.
.	.	8c	the	.	.	.	.	.	.
.	.	[8c-	book,	.	.	.	.	.	.
=62	=62	=62	=62	=62	=62	=62	=62	=62	=62
1D-Mm	D-:7	8c-]	_	1r	.	.	.	.	voice
.	.	8D-	a-	.	.	.	.	.	.
.	.	8D-	-now	.	.	.	.	.	.
.	.	[8F	ba	.	.	.	.	.	.
.	.	8F]	_	.	.	.	.	.	.
.	.	4.A-	by	.	.	.	.	.	.
=63	=63	=63	=63	=63	=63	=63	=63	=63	=63
1D-Mm	D-:7	4r	.	1r	.	.	.	.	voice
.	.	8r	.	.	.	.	.	.	.
.	.	8D-	oh,	.	.	.	.	.	.
.	.	8d-	that	.	.	.	.	.	.
.	.	8d-	I	.	.	.	.	.	.
.	.	8c	can	.	.	.	.	.	.
.	.	[8c-	find!	.	.	B	.	.	.
=64	=64	=64	=64	=64	=64	=64	=64	=64	=64
1D-Mm	D-:7	1c-]	_	1r	.	.	.	.	voice
=65	=65	=65	=65	=65	=65	=65	=65	=65	=65
*>Letter>B	*>Letter>B	*>Letter>B	*>Letter>B	*>Letter>B	*>Letter>B	*>Letter>B	*>Letter>B	*>Letter>B	*>Letter>B
*>Label>Solo	*>Label>Solo	*>Label>Solo	*>Label>Solo	*>Label>Solo	*>Label>Solo	*>Label>Solo	*>Label>Solo	*>Label>Solo	*>Label>Solo
1D-Mm	D-:7	1r	.	1r	.	.	116.17	newline	guitar
=66	=66	=66	=66	=66	=66	=66	=66	=66	=66
1D-Mm	D-:7	1r	.	1r	.	.	.	.	guitar
=67	=67	=67	=67	=67	=67	=67	=67	=67	=67
1D-Mm	D-:7	1r	.	1r	.	.	.	.	guitar
=68	=68	=68	=68	=68	=68	=68	=68	=68	=68
1D-Mm	D-:7	1r	.	1r	.	.	.	.	guitar
=69	=69	=69	=69	=69	=69	=69	=69	=69	=69
1D-Mm	D-:7	1r	.	1r	.	.	.	.	guitar
=70	=70	=70	=70	=70	=70	=70	=70	=70	=70
1D-Mm	D-:7	1r	.	1r	.	.	.	.	guitar
=71	=71	=71	=71	=71	=71	=71	=71	=71	=71
1A-Mm	A-:7	1r	.	1r	.	.	126.96	newline	guitar
=72	=72	=72	=72	=72	=72	=72	=72	=72	=72
1A-Mm	A-:7	1r	.	1r	.	.	.	.	guitar
=73	=73	=73	=73	=73	=73	=73	=73	=73	=73
1G-Mm	G-:7	1r	.	1r	.	.	.	.	guitar
=74	=74	=74	=74	=74	=74	=74	=74	=74	=74
1G-Mm	G-:7	1r	.	1r	.	.	.	.	guitar
=75	=75	=75	=75	=75	=75	=75	=75	=75	=75
1D-Mm	D-:7	1r	.	1r	.	.	134.115	newline	guitar
=76	=76	=76	=76	=76	=76	=76	=76	=76	=76
1D-Mm	D-:7	1r	.	1r	.	.	.	.	guitar
=77	=77	=77	=77	=77	=77	=77	=77	=77	=77
1D-Mm	D-:7	1r	.	1r	.	.	.	.	guitar
=78	=78	=78	=78	=78	=78	=78	=78	=78	=78
1D-Mm	D-:7	1r	.	1r	.	.	.	.	guitar
=79	=79	=79	=79	=79	=79	=79	=79	=79	=79
*>Letter>B	*>Letter>B	*>Letter>B	*>Letter>B	*>Letter>B	*>Letter>B	*>Letter>B	*>Letter>B	*>Letter>B	*>Letter>B
*>Label>Verse	*>Label>Verse	*>Label>Verse	*>Label>Verse	*>Label>Verse	*>Label>Verse	*>Label>Verse	*>Label>Verse	*>Label>Verse	*>Label>Verse
1D-Mm	D-:7	4r	.	1r	.	.	141.3	newline	voice
.	.	8d-	Su-	.	.	.	.	.	.
.	.	8d-	-per-	.	.	.	.	.	.
.	.	8d-	-man	.	.	.	.	.	.
.	.	8d-	or	.	.	.	.	.	.
.	.	8c	Green	.	.	.	.	.	.
.	.	[8c-	Lan	.	.	.	.	.	.
=80	=80	=80	=80	=80	=80	=80	=80	=80	=80
1D-Mm	D-:7	4c-]	_	1r	.	.	.	.	voice
.	.	8D-	tern	.	.	.	.	.	.
.	.	[8F	ain't	.	.	.	.	.	.
.	.	8F]	got	.	.	.	.	.	.
.	.	8A-	_	.	.	.	.	.	.
.	.	4r	.	.	.	.	.	.	.
=81	=81	=81	=81	=81	=81	=81	=81	=81	=81
1D-Mm	D-:7	4r	.	1r	.	.	.	.	voice
.	.	8r	.	.	.	.	.	.	.
.	.	8~E-	a-	.	.	.	.	.	.
.	.	8d-	-no-	.	.	.	.	.	.
.	.	8d-	-thing	.	.	.	.	.	.
.	.	8c	on	.	.	.	.	.	.
.	.	[8c-	me	.	.	.	.	.	.
=82	=82	=82	=82	=82	=82	=82	=82	=82	=82
1D-Mm	D-:7	8c-]	_	1r	.	.	.	.	voice
.	.	8c-	uh	.	.	.	.	.	.
.	.	4r	.	.	.	.	.	.	.
.	.	2r	.	.	.	.	.	.	.
=83	=83	=83	=83	=83	=83	=83	=83	=83	=83
1D-Mm	D-:7	4r	.	1r	.	.	.	.	voice
.	.	8d-	I	.	.	.	.	.	.
.	.	8d-	can	.	.	.	.	.	.
.	.	8d-	make	.	.	.	.	.	.
.	.	8~c	like	.	.	.	.	.	.
.	.	8c	a	.	.	.	.	.	.
.	.	[8c-	tur	.	.	.	.	.	.
=84	=84	=84	=84	=84	=84	=84	=84	=84	=84
1D-Mm	D-:7	8c-]	_	1r	.	.	.	.	voice
.	.	4D-	tle	.	.	.	.	.	.
.	.	8D-	and	.	.	.	.	.	.
.	.	4F	dive	.	.	.	.	.	.
.	.	4A-	for	.	.	.	.	.	.
=85	=85	=85	=85	=85	=85	=85	=85	=85	=85
1D-Mm	D-:7	4r	.	1r	.	.	.	.	voice
.	.	8r	.	.	.	.	.	.	.
.	.	8~E-	your	.	.	.	.	.	.
.	.	8d-	pearls	.	.	.	.	.	.
.	.	8d-	in	.	.	.	.	.	.
.	.	8c	the	.	.	.	.	.	.
.	.	[8c-	sea	.	.	D	.	.	.
=86	=86	=86	=86	=86	=86	=86	=86	=86	=86
1D-Mm	D-:7	4c-]	_	1r	.	.	.	.	voice
.	.	8r	.	.	.	.	.	.	.
.	.	8f	yep!	.	.	.	.	.	.
.	.	2r	.	.	.	.	.	.	.
=87	=87	=87	=87	=87	=87	=87	=87	=87	=87
1G-Mm	G-:7	8r	.	1r	.	.	155.645	newline	voice
.	.	8B-	A-	.	.	.	.	.	.
.	.	8d-	-you-	.	.	.	.	.	.
.	.	8c	-you-	.	.	.	.	.	.
.	.	8d-	-you	.	.	.	.	.	.
.	.	8c	can	.	.	.	.	.	.
.	.	8c-	just	.	.	.	.	.	.
.	.	[8B-	sit	.	.	.	.	.	.
=88	=88	=88	=88	=88	=88	=88	=88	=88	=88
1G-Mm	G-:7	8B-]	_	1r	.	.	.	.	voice
.	.	8Aq	_	.	.	.	.	.	.
.	.	4B-	there	.	.	.	.	.	.
.	.	8D-	while	.	.	.	.	.	.
.	.	4G-	thin-	.	.	.	.	.	.
.	.	4B-	-king	.	.	D	.	.	.
=89	=89	=89	=89	=89	=89	=89	=89	=89	=89
1G-Mm	G-:7	4r	.	1r	.	.	.	.	voice
.	.	8d-	on	.	.	.	.	.	.
.	.	8d-	your	.	.	.	.	.	.
.	.	8c	vel-	.	.	.	.	.	.
.	.	4c-	-vet	.	.	.	.	.	.
.	.	[8B-	throne	.	.	F	.	.	.
=90	=90	=90	=90	=90	=90	=90	=90	=90	=90
1G-Mm	G-:7	2B-_	_	1r	.	.	.	.	voice
.	.	8B-]	_	.	.	.	.	.	.
.	.	8r	.	.	.	.	.	.	.
.	.	4r	.	.	.	.	.	.	.
=91	=91	=91	=91	=91	=91	=91	=91	=91	=91
1D-Mm	D-:7	2r	.	1r	.	.	162.93	newline	voice
.	.	8d-	'bout	.	.	.	.	.	.
.	.	8d-	all	.	.	.	.	.	.
.	.	8c	the	.	.	.	.	.	.
.	.	[8c-	rain	.	.	.	.	.	.
=92	=92	=92	=92	=92	=92	=92	=92	=92	=92
1D-Mm	D-:7	8c-]	_	1r	.	.	.	.	voice
.	.	4c-	bows	.	.	F	.	.	.
.	.	8D-	a-	.	.	.	.	.	.
.	.	8F	-you	.	.	.	.	.	.
.	.	4.A-	can	.	.	.	.	.	.
=93	=93	=93	=93	=93	=93	=93	=93	=93	=93
1D-Mm	D-:7	4r	.	1r	.	.	.	.	voice
.	.	8r	.	.	.	.	.	.	.
.	.	8D-	a-	.	.	.	.	.	.
.	.	8d-	-have	.	.	.	.	.	.
.	.	8d-	for	.	.	.	.	.	.
.	.	8c	your	.	.	.	.	.	.
.	.	[8c-	own	.	.	F	.	.	.
=94	=94	=94	=94	=94	=94	=94	=94	=94	=94
1D-Mm	D-:7	2.c-]	_	1r	.	.	.	.	voice
.	.	4r	.	.	.	.	.	.	.
=95	=95	=95	=95	=95	=95	=95	=95	=95	=95
*>Letter>C	*>Letter>C	*>Letter>C	*>Letter>C	*>Letter>C	*>Letter>C	*>Letter>C	*>Letter>C	*>Letter>C	*>Letter>C
*>Label>Chorus	*>Label>Chorus	*>Label>Chorus	*>Label>Chorus	*>Label>Chorus	*>Label>Chorus	*>Label>Chorus	*>Label>Chorus	*>Label>Chorus	*>Label>Chorus
1A-Mm	A-:7	4A-	When	4c	_	.	170.11	newline	voice
.	.	4A-	you've	4c	_	.	.	.	.
.	.	4A-	made	4c	_	.	.	.	.
.	.	4A-	your	4c	_	.	.	.	.
=96	=96	=96	=96	=96	=96	=96	=96	=96	=96
1A-Mm	A-:7	[4.A-	mind	2c	_	B	.	.	voice
.	.	16A-]	_	.	.	.	.	.	.
.	.	[16A-	up,	.	.	.	.	.	.
.	.	8.A-]	_	4c	_	.	.	.	.
.	.	[16A-	for	.	.	.	.	.	.
.	.	4A-]	_	4c	_	.	.	.	.
=97	=97	=97	=97	=97	=97	=97	=97	=97	=97
1G-Mm	G-:7	4d-	e-	4d-	_	.	.	.	voice
.	.	4D-	-ver	4D-	_	.	.	.	.
.	.	8D-	to	8D-	_	.	.	.	.
.	.	4D-	be	4D-	_	.	.	.	.
.	.	[8D-	mine,	[8D-	_	B	.	.	.
=98	=98	=98	=98	=98	=98	=98	=98	=98	=98
1G-Mm	G-:7	4D-]	_	4D-]	_	.	.	.	voice
.	.	4r	.	4r	.	.	.	.	.
.	.	8~F-	hm-	2r	.	.	.	.	.
.	.	8~G-	-hm-	.	.	.	.	.	.
.	.	8~F	-hm-	.	.	.	.	.	.
.	.	8~G-	-hm	.	.	.	.	.	.
=99	=99	=99	=99	=99	=99	=99	=99	=99	=99
1D-Mm	D-:7	4r	.	1r	.	.	177.235	newline	voice
.	.	8r	.	.	.	.	.	.	.
.	.	8D-	I'll	.	.	.	.	.	.
.	.	8d-	pick	.	.	.	.	.	.
.	.	8~c	up	.	.	.	.	.	.
.	.	8c-	your	.	.	.	.	.	.
.	.	[8c-	hand	.	.	.	.	.	.
=100	=100	=100	=100	=100	=100	=100	=100	=100	=100
1D-Mm	D-:7	4c-]	_	1r	.	.	.	.	voice
.	.	8D-	and	.	.	.	.	.	.
.	.	8D-	s-	.	.	.	.	.	.
.	.	8F	-low-	.	.	.	.	.	.
.	.	4.A-	-ly	.	.	.	.	.	.
=101	=101	=101	=101	=101	=101	=101	=101	=101	=101
1D-Mm	D-:7	4r	.	1r	.	.	.	.	voice
.	.	8d-	blow	.	.	.	.	.	.
.	.	8d-	your	.	.	.	.	.	.
.	.	8d-	lit-	.	.	.	.	.	.
.	.	4c	-tle	.	.	.	.	.	.
.	.	[8c-	mind	.	.	B	.	.	.
=102	=102	=102	=102	=102	=102	=102	=102	=102	=102
1D-Mm	D-:7	2c-_	_	1r	.	.	.	.	voice
.	.	8c-]	_	.	.	.	.	.	.
.	.	8r	.	.	.	.	.	.	.
.	.	4r	.	.	.	.	.	.	.
=103	=103	=103	=103	=103	=103	=103	=103	=103	=103
*>Letter>C	*>Letter>C	*>Letter>C	*>Letter>C	*>Letter>C	*>Letter>C	*>Letter>C	*>Letter>C	*>Letter>C	*>Letter>C
*>Label>Chorus	*>Label>Chorus	*>Label>Chorus	*>Label>Chorus	*>Label>Chorus	*>Label>Chorus	*>Label>Chorus	*>Label>Chorus	*>Label>Chorus	*>Label>Chorus
1A-Mm	A-:7	4A-	When	4c	When	.	184.37	newline	voice
.	.	4A-	you've	4c	you've	.	.	.	.
.	.	4A-	made	4c	made	.	.	.	.
.	.	4A-	your	4c	your	.	.	.	.
=104	=104	=104	=104	=104	=104	=104	=104	=104	=104
1A-Mm	A-:7	2A-	mind	2c	mind	B	.	.	voice
.	.	4A-	up,	4c	up,	.	.	.	.
.	.	4A-	for-	4c	for-	.	.	.	.
=105	=105	=105	=105	=105	=105	=105	=105	=105	=105
1G-Mm	G-:7	4d-	-e-	4d-	-e-	.	.	.	voice
.	.	4D-	-ver	4D-	-ver	.	.	.	.
.	.	8D-	to	8D-	to	.	.	.	.
.	.	4D-	be	4D-	be	.	.	.	.
.	.	[8D-	mine	[8D-	mine	B	.	.	.
=106	=106	=106	=106	=106	=106	=106	=106	=106	=106
1G-Mm	G-:7	4D-]	_	4D-]	_	.	.	.	voice
.	.	8r	.	4r	.	.	.	.	.
.	.	8D-	I'll	.	.	.	.	.	.
.	.	8F	pick	2r	.	.	.	.	.
.	.	8G-	up	.	.	.	.	.	.
.	.	8F	your	.	.	.	.	.	.
.	.	8~A-	hand	.	.	.	.	.	.
=107	=107	=107	=107	=107	=107	=107	=107	=107	=107
1D-Mm	D-:7	4r	.	1r	.	.	.	newline	voice
.	.	8r	.	.	.	.	.	.	.
.	.	8D-	I'll	.	.	.	.	.	.
.	.	8d-	pick	.	.	.	.	.	.
.	.	8~c	up	.	.	.	.	.	.
.	.	8c-	your	.	.	.	.	.	.
.	.	8c-	hand!	.	.	.	.	.	.
=108	=108	=108	=108	=108	=108	=108	=108	=108	=108
1D-Mm	D-:7	1r	.	1r	.	.	.	.	voice
1r;	1r	r;	.	r;	.	.	.	.	r
*-	*-	*-	*-	*-	*-	*-	*-	*-	*-
!!!BillboardChartDate: 1966/08/13
!!!BillboardPeak: 1
!!!BillboardWeeksOnChart: 13
!!!COC: Donovan
!!!ENC: Nathaniel Condit-Schultz
!!!EST: Awating manual error checking and editing.
!!!OTL: Sunshine Superman
!!!RDF**chordsym: original McGill chord annotation + (implied pitch class set, with bass pitch in first position)
!!!RDF**harmony: **recip + pitch class of root + harmonic quality
!!!RDF**leadinstrument: original McGill primary instrumentation annotation
!!!RDF**phrase: newline = linebreak in original McGill transcription
!!!RDF**timestamp: McGill audio timestamp in seconds
!!!RDT: 2017/01/12/
!!!SampleActualRank: 20
!!!SampleID#: 0383
!!!SampleTargetRank: 19
